mapstyles/mapsforge_peruskartta/mml/SVaPvas.svg

<?xml version="1.0" encoding="UTF-8" standalone="no"?>
<!-- Created with Inkscape (http://www.inkscape.org/) -->

<svg
   xmlns:dc="http://purl.org/dc/elements/1.1/"
   xmlns:cc="http://creativecommons.org/ns#"
   xmlns:rdf="http://www.w3.org/1999/02/22-rdf-syntax-ns#"
   xmlns:svg="http://www.w3.org/2000/svg"
   xmlns="http://www.w3.org/2000/svg"
   xmlns:sodipodi="http://sodipodi.sourceforge.net/DTD/sodipodi-0.dtd"
   xmlns:inkscape="http://www.inkscape.org/namespaces/inkscape"
   version="1.1"
   width="394"
   height="750"
   id="svg2"
   xml:space="preserve"
   inkscape:version="0.48.4 r9939"
   sodipodi:docname="SVaPvas.svg"><sodipodi:namedview
     pagecolor="#ffffff"
     bordercolor="#666666"
     borderopacity="1"
     objecttolerance="10"
     gridtolerance="10"
     guidetolerance="10"
     inkscape:pageopacity="0"
     inkscape:pageshadow="2"
     inkscape:window-width="1920"
     inkscape:window-height="1012"
     id="namedview11"
     showgrid="false"
     inkscape:zoom="0.95353535"
     inkscape:cx="139.21587"
     inkscape:cy="782.70467"
     inkscape:window-x="-8"
     inkscape:window-y="-8"
     inkscape:window-maximized="1"
     inkscape:current-layer="svg2" /><metadata
     id="metadata8"><rdf:RDF><cc:Work
         rdf:about=""><dc:format>image/svg+xml</dc:format><dc:type
           rdf:resource="http://purl.org/dc/dcmitype/StillImage" /></cc:Work></rdf:RDF></metadata><defs
     id="defs6" /><g
     transform="matrix(1.25,0,0,-1.25,106.875,824.375)"
     id="g10"><g
       transform="scale(0.1,0.1)"
       id="g12"><path
         d="m -210,720 1860,0 m -930,1310 0,2190"
         inkscape:connector-curvature="0"
         id="path14"
         style="fill:none;stroke:#000000;stroke-width:250;stroke-linecap:butt;stroke-linejoin:miter;stroke-miterlimit:10;stroke-opacity:1;stroke-dasharray:none" /><path
         d="m -210,720 1860,0 m -930,1310 0,2190 m -750,0 0,1500 1500,0 0,-1500 -1500,0 m 100,100 0,1300 1300,0 0,-1300 -1300,0 m 130,130 0,1050 1050,0 0,-1050 -1050,0 m 1080,-3730 0,750"
         inkscape:connector-curvature="0"
         id="path16"
         style="fill:none;stroke:#000000;stroke-width:200;stroke-linecap:butt;stroke-linejoin:miter;stroke-miterlimit:10;stroke-opacity:1;stroke-dasharray:none" /><path
         d="m 1280,1470 c 0,309.28 -250.72,560 -560,560 -309.277,0 -560,-250.72 -560,-560 l 0,-750"
         inkscape:connector-curvature="0"
         id="path18"
         style="fill:none;stroke:#000000;stroke-width:200;stroke-linecap:butt;stroke-linejoin:miter;stroke-miterlimit:10;stroke-opacity:1;stroke-dasharray:none" /><path
         d="m 2170,5020 c 0,800.81 -649.19,1450 -1450,1450 -800.8125,0 -1450,-649.19 -1450,-1450 0,-800.81 649.1875,-1450 1450,-1450 800.81,0 1450,649.19 1450,1450"
         inkscape:connector-curvature="0"
         id="path20"
         style="fill:none;stroke:#000000;stroke-width:250;stroke-linecap:butt;stroke-linejoin:miter;stroke-miterlimit:10;stroke-opacity:1;stroke-dasharray:none" /></g></g></svg>

<svg xmlns="http://www.w3.org/2000/svg" xml:space="preserve" width="394" height="750"><path d="M-210 720h1860M720 2030v2190" style="fill:none;stroke:#000;stroke-width:250;stroke-linecap:butt;stroke-linejoin:miter;stroke-miterlimit:10;stroke-opacity:1;stroke-dasharray:none" transform="matrix(.13 0 0 -.13 106.875 824.375)"/><path d="M-210 720h1860M720 2030v2190m-750 0v1500h1500V4220H-30m100 100v1300h1300V4320H70m130 130v1050h1050V4450H200M1280 720v750M1280 1470c0 309.28-250.72 560-560 560-309.277 0-560-250.72-560-560V720" style="fill:none;stroke:#000;stroke-width:200;stroke-linecap:butt;stroke-linejoin:miter;stroke-miterlimit:10;stroke-opacity:1;stroke-dasharray:none" transform="matrix(.13 0 0 -.13 106.875 824.375)"/><path d="M2170 5020c0 800.81-649.19 1450-1450 1450-800.813 0-1450-649.19-1450-1450S-80.812 3570 720 3570c800.81 0 1450 649.19 1450 1450" style="fill:none;stroke:#000;stroke-width:250;stroke-linecap:butt;stroke-linejoin:miter;stroke-miterlimit:10;stroke-opacity:1;stroke-dasharray:none" transform="matrix(.13 0 0 -.13 106.875 824.375)"/></svg>
